icons/overcast.svg

<svg width="32" height="32" viewBox="0 0 32 32" fill="none" xmlns="http://www.w3.org/2000/svg">
<path fill-rule="evenodd" clip-rule="evenodd" d="M3.36627 28.6337C0.910867 26.1783 0 22.1783 0 16C0 9.82167 0.910867 5.82167 3.36627 3.36627C5.82167 0.910867 9.82167 0 16 0C22.1783 0 26.1783 0.910867 28.6337 3.36627C31.0891 5.82167 32 9.82167 32 16C32 22.1783 31.0891 26.1783 28.6337 28.6337C26.1783 31.0891 22.1783 32 16 32C9.82167 32 5.82167 31.0891 3.36627 28.6337Z" fill="url(#paint0_linear_29_362)"/>
<path fill-rule="evenodd" clip-rule="evenodd" d="M16 28C22.6274 28 28 22.6274 28 16C28 9.37258 22.6274 4 16 4C9.37258 4 4 9.37258 4 16C4 22.6274 9.37258 28 16 28Z" fill="white"/>
<path fill-rule="evenodd" clip-rule="evenodd" d="M3.33342 16.0003C3.33342 22.996 9.00448 28.667 16.0001 28.667C19.362 28.6751 22.5885 27.3432 24.9658 24.966C27.343 22.5888 28.6749 19.3622 28.6668 16.0003C28.6668 9.00474 22.9957 3.33368 16.0001 3.33368C9.00448 3.33368 3.33342 9.00474 3.33342 16.0003ZM16.9501 22.7032L16.0001 23.6532L15.0501 22.7032L16.0001 19.0615L16.9501 22.7032ZM14.7863 23.6006L14.3113 25.3951L15.4196 24.2868L14.7863 23.6006ZM16.5805 24.2339L17.2138 23.6006L17.6888 25.3423L16.5805 24.2339ZM18.1113 26.8723L16.0001 24.7614L13.8889 26.8723C14.5861 26.9976 15.292 27.0682 16.0001 27.0835C16.7096 27.0944 17.418 27.0235 18.1113 26.8723ZM5.07168 14.1434C5.97327 8.81225 10.5933 4.9118 16.0001 4.91702C21.407 4.9118 26.027 8.81225 26.9286 14.1434C27.8302 19.4746 24.7497 24.6773 19.6418 26.4504L17.2668 17.6366C18.0611 17.0409 18.333 15.9723 17.92 15.0694C17.5071 14.1666 16.5209 13.6734 15.5508 13.8847C14.5807 14.096 13.889 14.9547 13.8889 15.9475C13.8791 16.6143 14.1941 17.2443 14.7335 17.6366L12.3585 26.4504C7.25056 24.6773 4.17008 19.4746 5.07168 14.1434Z" fill="url(#paint1_linear_29_362)"/>
<path fill-rule="evenodd" clip-rule="evenodd" d="M8.7696 21.4891C9.03963 21.8257 9.52447 21.8949 9.87794 21.6475C10.2098 21.3977 10.2802 20.9281 10.0363 20.592C8.13627 17.8257 8.13627 14.1749 10.0363 11.4087C10.1658 11.2516 10.2226 11.0469 10.1924 10.8456C10.1622 10.6443 10.0479 10.4653 9.87794 10.3532C9.52447 10.1057 9.03963 10.175 8.7696 10.5115C6.44747 13.8023 6.44747 18.1983 8.7696 21.4891ZM22.1221 21.6475C22.4756 21.8949 22.9604 21.8257 23.2304 21.4891C25.5526 18.1983 25.5526 13.8023 23.2304 10.5115C22.9604 10.175 22.4756 10.1057 22.1221 10.3532C21.9522 10.4653 21.8379 10.6443 21.8077 10.8456C21.7775 11.0469 21.8342 11.2516 21.9638 11.4087C23.8638 14.1749 23.8638 17.8257 21.9638 20.592C21.8342 20.749 21.7775 20.9537 21.8077 21.155C21.8379 21.3563 21.9522 21.5353 22.1221 21.6475ZM19.4305 18.2171C19.0995 18.5462 19.0766 19.0743 19.3779 19.4309C19.5153 19.5892 19.7114 19.6844 19.9208 19.6943C20.1301 19.7043 20.3345 19.6282 20.4863 19.4837C22.2453 17.4946 22.2453 14.5062 20.4863 12.5171C20.3405 12.3607 20.1333 12.2765 19.9198 12.2866C19.7063 12.2968 19.5081 12.4004 19.3779 12.5699C19.1022 12.9348 19.1242 13.4441 19.4305 13.7837C19.9338 14.4139 20.2124 15.194 20.2222 16.0004C20.2268 16.8093 19.9466 17.5941 19.4305 18.2171ZM12.6222 19.4311C12.4848 19.5894 12.2887 19.6846 12.0793 19.6946C11.87 19.7046 11.6657 19.6285 11.5138 19.4839C9.75483 17.4948 9.75483 14.5064 11.5138 12.5173C11.6593 12.3604 11.8666 12.2758 12.0803 12.286C12.294 12.2962 12.4923 12.4002 12.6222 12.5701C12.9235 12.9267 12.9006 13.4548 12.5696 13.7839C12.0663 14.4141 11.7877 15.1942 11.7779 16.0006C11.7733 16.8095 12.0536 17.5943 12.5696 18.2173C12.9017 18.5459 12.9246 19.0749 12.6222 19.4311Z" fill="#FF9A20"/>
<defs>
<linearGradient id="paint0_linear_29_362" x1="0" y1="0" x2="0" y2="32" gradientUnits="userSpaceOnUse">
<stop stop-color="#FF9A20"/>
<stop offset="1" stop-color="#FF7724"/>
</linearGradient>
<linearGradient id="paint1_linear_29_362" x1="3.33342" y1="3.33368" x2="3.33342" y2="28.667" gradientUnits="userSpaceOnUse">
<stop stop-color="#444E58"/>
<stop offset="1" stop-color="#22312C"/>
</linearGradient>
</defs>
</svg>

<svg xmlns="http://www.w3.org/2000/svg" width="32" height="32" fill="none" viewBox="0 0 32 32">
  <path fill="url(#a)" fill-rule="evenodd" d="M3.366 28.634C.911 26.178 0 22.178 0 16S.91 5.822 3.366 3.366C5.822.911 9.822 0 16 0s10.178.91 12.634 3.366C31.089 5.822 32 9.822 32 16s-.91 10.178-3.366 12.634C26.178 31.089 22.178 32 16 32s-10.178-.91-12.634-3.366Z" clip-rule="evenodd"/>
  <path fill="#fff" fill-rule="evenodd" d="M16 28c6.627 0 12-5.373 12-12S22.627 4 16 4 4 9.373 4 16s5.373 12 12 12Z" clip-rule="evenodd"/>
  <path fill="url(#b)" fill-rule="evenodd" d="M3.333 16c0 6.996 5.671 12.667 12.667 12.667A12.636 12.636 0 0 0 28.667 16c0-6.995-5.671-12.666-12.667-12.666C9.004 3.334 3.333 9.004 3.333 16Zm13.617 6.703-.95.95-.95-.95.95-3.642.95 3.642Zm-2.164.898-.475 1.794 1.109-1.108-.634-.686Zm1.794.633.634-.634.475 1.742-1.109-1.108Zm1.531 2.638-2.11-2.11-2.112 2.11c.697.125 1.403.196 2.111.212.71.01 1.418-.06 2.111-.212ZM5.071 14.143a11.073 11.073 0 0 1 10.93-9.226 11.073 11.073 0 0 1 3.64 21.533l-2.374-8.813a2.111 2.111 0 1 0-3.378-1.69c-.01.667.305 1.297.844 1.69l-2.375 8.813a11.073 11.073 0 0 1-7.286-12.307Z" clip-rule="evenodd"/>
  <path fill="#FF9A20" fill-rule="evenodd" d="M8.77 21.49a.819.819 0 0 0 1.108.158.761.761 0 0 0 .158-1.056 8.11 8.11 0 0 1 0-9.183.718.718 0 0 0-.158-1.056.819.819 0 0 0-1.108.159 9.52 9.52 0 0 0 0 10.977Zm13.352.158a.819.819 0 0 0 1.108-.159 9.52 9.52 0 0 0 0-10.978.819.819 0 0 0-1.108-.158.717.717 0 0 0-.158 1.056 8.11 8.11 0 0 1 0 9.183.718.718 0 0 0 .158 1.056Zm-2.692-3.43a.896.896 0 0 0-.052 1.213.767.767 0 0 0 1.108.053 5.258 5.258 0 0 0 0-6.967.727.727 0 0 0-1.108.053.954.954 0 0 0 .052 1.214c.504.63.782 1.41.792 2.216a3.445 3.445 0 0 1-.792 2.217Zm-6.808 1.213a.767.767 0 0 1-1.108.053 5.258 5.258 0 0 1 0-6.967.725.725 0 0 1 1.108.053.896.896 0 0 1-.053 1.214A3.623 3.623 0 0 0 11.778 16a3.444 3.444 0 0 0 .791 2.216.894.894 0 0 1 .053 1.214Z" clip-rule="evenodd"/>
  <defs>
    <linearGradient id="a" x1="0" x2="0" y1="0" y2="32" gradientUnits="userSpaceOnUse">
      <stop stop-color="#FF9A20"/>
      <stop offset="1" stop-color="#FF7724"/>
    </linearGradient>
    <linearGradient id="b" x1="3.333" x2="3.333" y1="3.334" y2="28.667" gradientUnits="userSpaceOnUse">
      <stop stop-color="#444E58"/>
      <stop offset="1" stop-color="#22312C"/>
    </linearGradient>
  </defs>
</svg>
